src/assets/icons/bookmark-bold.svg

<svg width="18" height="21" viewBox="0 0 18 21" fill="none" xmlns="http://www.w3.org/2000/svg">
<path d="M16.8998 20.2681C16.6998 20.2681 16.5998 20.2681 16.4998 20.1681L8.9998 14.6681L1.4998 20.0681C1.2998 20.2681 0.999799 20.2681 0.699799 20.1681C0.499799 20.0681 0.299805 19.7681 0.299805 19.4681V2.3681C0.299805 1.1681 1.2998 0.168091 2.4998 0.168091H15.2998C16.4998 0.168091 17.4998 1.1681 17.4998 2.3681V19.4681C17.4998 19.7681 17.2998 19.9681 17.0998 20.1681C17.0998 20.2681 16.9998 20.2681 16.8998 20.2681Z" fill="black"/>
</svg>

<svg width="18" height="21" fill="none" xmlns="http://www.w3.org/2000/svg"><path d="M16.9 20.268c-.2 0-.3 0-.4-.1l-7.5-5.5-7.5 5.4c-.2.2-.5.2-.8.1-.2-.1-.4-.4-.4-.7v-17.1c0-1.2 1-2.2 2.2-2.2h12.8c1.2 0 2.2 1 2.2 2.2v17.1c0 .3-.2.5-.4.7 0 .1-.1.1-.2.1z" fill="#000"/></svg>
